src/icons/outline/symbols/lock-unlock.svg

<svg width="24" height="24" viewBox="0 0 24 24" fill="none" xmlns="http://www.w3.org/2000/svg">
<g clip-path="url(#clip0_4701_382)">
<path d="M12.0605 14.2292C13.1986 14.2292 14.1211 15.1283 14.1211 16.2371C14.1209 17.3457 13.1985 18.2449 12.0605 18.2449C10.9226 18.2448 10.0002 17.3457 10 16.2371C10 15.1283 10.9225 14.2293 12.0605 14.2292Z" fill="#3C3B44"/>
<path fill-rule="evenodd" clip-rule="evenodd" d="M11.5322 0.999756C13.128 0.999756 14.6269 1.60289 15.7559 2.70288C16.8629 3.78169 17.5029 5.28366 17.5029 6.81714V9.42847C17.5029 9.55652 17.4709 9.67811 17.4141 9.78589H18.8262L19.0488 9.79761C20.1486 9.90656 21 10.8136 21 11.9148V20.8816C21 22.056 20.0316 22.9997 18.8262 22.9998H5.18457C3.97912 22.9998 3 22.0561 3 20.8816V11.9148C3 10.7403 3.97912 9.78589 5.18457 9.78589H15.9639C15.907 9.67812 15.875 9.55651 15.875 9.42847V6.81714C15.875 5.70657 15.4078 4.61724 14.6045 3.82397C13.7795 3.03072 12.6938 2.58667 11.5322 2.58667C10.3708 2.58675 9.28492 3.03079 8.45996 3.82397C7.90658 4.36325 7.51571 5.03994 7.32031 5.78003C7.21177 6.20303 6.76716 6.46751 6.33301 6.35132C5.8989 6.24558 5.62692 5.81237 5.74609 5.3894C6.00661 4.37411 6.54977 3.44323 7.30957 2.70288C8.43849 1.60296 9.93656 0.999837 11.5322 0.999756ZM5.18457 11.2917C4.83427 11.2917 4.5459 11.5735 4.5459 11.9148V20.8816C4.5459 21.2229 4.83427 21.4939 5.18457 21.4939H18.8262C19.1764 21.4938 19.4541 21.2229 19.4541 20.8816V11.9148C19.4541 11.6163 19.2418 11.3631 18.9541 11.3044L18.8262 11.2917H5.18457Z" fill="#3C3B44"/>
</g>
<defs>
<clipPath id="clip0_4701_382">
<rect width="24" height="24" fill="white"/>
</clipPath>
</defs>
</svg>

<svg xmlns="http://www.w3.org/2000/svg" width="24" height="24" fill="none" viewBox="0 0 24 24"><g fill="currentColor" clip-path="url(#a)"><path d="M12.06 14.23c1.139 0 2.061.898 2.061 2.007s-.923 2.008-2.06 2.008-2.06-.9-2.061-2.008.922-2.008 2.06-2.008"/><path fill-rule="evenodd" d="M11.532 1a6 6 0 0 1 4.224 1.703 5.8 5.8 0 0 1 1.747 4.114v2.611q-.002.195-.089.358h1.412l.223.012c1.1.109 1.951 1.016 1.951 2.117v8.967C21 22.056 20.032 23 18.826 23H5.185C3.979 23 3 22.056 3 20.882v-8.967c0-1.175.98-2.13 2.185-2.13h10.779a.76.76 0 0 1-.089-.357v-2.61c0-1.111-.467-2.2-1.27-2.994a4.4 4.4 0 0 0-3.073-1.237A4.4 4.4 0 0 0 8.46 3.824 4.24 4.24 0 0 0 7.32 5.78a.807.807 0 0 1-.987.571c-.434-.105-.706-.539-.587-.962A5.76 5.76 0 0 1 7.31 2.703 6 6 0 0 1 11.532 1M5.185 11.292a.634.634 0 0 0-.64.623v8.967c0 .34.29.612.64.612h13.641c.35 0 .628-.271.628-.612v-8.967a.624.624 0 0 0-.5-.61l-.128-.013z" clip-rule="evenodd"/></g><defs><clipPath id="a"><path fill="currentColor" d="M0 0h24v24H0z"/></clipPath></defs></svg>
